!! 00008] TT[TB
!! Eigene Aufnahme
!!!OTL: Xiao huang ma
!!!ARE: Neimeng Xilingele (Naehe Jilin)
!! Ethnic Group: Menggu,     (gesungen)
!! IV, 302
!!!SCT: C0177
!!!YEM: Copyright 1995, estate of Helmut Schaffrath.
**kern
*ICvox
*Ivox
!! Mixed meters:  3/4; 4/4; 2/4
*MZ
*k[]
*C:
{4.e
8g
4a
8cc
8dd
=1
*M3/4
8dd
[8dd
2dd]}
=2
{8dd
24dd
24dd
24ee
4.ee
16ee
16gg
=3
*M4/4
8dd
8cc
8a
24a
24a
24cc
2g}
=4
*M3/4
{8g
16g
16g
4a
8cc
8dd
=5
[2dd
8dd]
24ee
24ee
24gg
=6
*M2/4
8dd
24dd
24dd
24ee
4cc}
=7
{2e
12e
12e
12g
=8
*M3/4
2.d}
=9
*M4/4
{8g
4e
16e
16a
12c
12d
12g
8a
24cc
24dd
24cc
=10
*M3/4
8a
8cc
2g}
=11
*M4/4
{12g
12a
12dd
8cc
8dd
2dd
=12
8dd
24dd
24dd
24ee
4.ee
24ee
24ee
24aa
=13
*M3/4
8dd
24dd
24dd
24ee
4cc
4r}
=14
{8e
8e
8a
8dd
8dd
24dd
24dd
24ee
8dd
16cc
16a
=15
8cc
24cc
24cc
24dd
2a}
==
!!!AGN: Muge. Biaoda aiqing
!! Der Saenger singt nur auswendig mit Schnaps und Zigarette in der
!!    Hand (letzteres nur Abends). Die Frage nach den Liedinhalten
!!    wurde oft stereotyp mit "Pferd" beantwortet.
!!    Beim Singen bleibt der Mund ziemlich unbeweglich. Das Notenskelett
!!    scheint hier genauer als bei anderen Liedern. Kad.folge brauchbar.
!!    Saenger: Chao Lun Batou   VARIANTE. Sehr viele Tremoli, sehr schoen.
!!    Sollte der Grundton nicht A (hier=6) sein???
!!!ONB: ESAC (Essen Associative Code) Database: CHINA
!!!AMT: irregular
!!!AIN: vox
!!!EED: Helmut Schaffrath
!!!EEV: 1.0
*-
